X: 2
T: The Mountain Road
R: reel
M: 4/4
L: 1/8
K: Dmaj
F2 AF BFAF| F/A/F AF EFDE| F2 AF BFAF| G2 FG EFGE|F2 AF BFAF|F/A/F AF EFDE| FA~A2 BAFB|ABde fgfe||d2 dA BAFA| dcde fgfe| ~d3A BAFA| G2 FG EFGA|d2 dA BAFA| dcde fgfe| dcdA BAFA| G2 FG EFGE||


Tune 68	Setting 68

